packages/kaspersky-hexa-ui-icons/src/iconsSVGs/32/Keys.svg

<svg width="32" height="32" viewBox="0 0 32 32" fill="none" xmlns="http://www.w3.org/2000/svg">
<path fill-rule="evenodd" clip-rule="evenodd" d="M9.5 6C7.567 6 6 7.567 6 9.5C6 9.89754 6.06628 10.2796 6.18839 10.6357C7.09142 9.83472 8.21909 9.28132 9.46496 9.08196C9.77687 8.30425 10.2347 7.60072 10.8046 7.00536C10.9701 6.83249 11.1451 6.66874 11.3286 6.51494C10.7962 6.18808 10.1699 6 9.5 6ZM11.6873 9.10818C12.3562 8.04438 13.4581 7.28059 14.7449 7.06311C14.9904 7.02161 15.2427 7 15.5 7C17.9853 7 20 9.01472 20 11.5C20 11.7686 19.9766 12.031 19.9319 12.2853C19.8558 12.7181 20.0711 13.1494 20.4618 13.3489L27 18.486V20H25.177L24.4285 18.1286C24.2766 17.749 23.9089 17.5 23.5 17.5H21.4806L19.7809 15.3753C19.7578 15.3465 19.7332 15.319 19.7071 15.2929L19.5641 15.1499C19.4003 14.9861 19.1923 14.8901 18.9765 14.8642C18.9921 15.0741 19 15.2861 19 15.5C19 16.1349 18.9304 16.7536 18.7984 17.3487L20.2191 19.1247C20.4089 19.3619 20.6962 19.5 21 19.5H22.823L23.5715 21.3714C23.7234 21.751 24.0911 22 24.5 22H28C28.5523 22 29 21.5523 29 21V18C29 17.6931 28.8591 17.4033 28.6178 17.2137L21.9811 11.9991C21.9936 11.8342 22 11.6678 22 11.5C22 7.91016 19.0898 5.00001 15.5 5C14.6865 5 13.9081 5.14939 13.1906 5.42218C12.2153 4.539 10.9209 4 9.5 4C6.46243 4 4 6.46243 4 9.5C4 10.5498 4.29411 11.5309 4.80442 12.3653C4.29174 13.2949 4 14.3634 4 15.5C4 19.0899 6.91015 22 10.5 22C10.9499 22 11.3899 21.9541 11.8153 21.8666L13.1056 24.4472C13.2361 24.7083 13.4743 24.8993 13.7575 24.9701L15.1435 25.3167L15.5194 27.1961C15.6129 27.6635 16.0233 28 16.5 28H20.5C21.0523 28 21.5 27.5523 21.5 27V25C21.5 24.7916 21.4349 24.5884 21.3137 24.4188L16.5828 17.7954C16.8526 17.0808 17 16.3067 17 15.5C17 12.3156 14.7102 9.66612 11.6873 9.10818ZM6.2726 13.954C6.09624 14.4361 6 14.9568 6 15.5C6 17.9853 8.01472 20 10.5 20C11.0173 20 11.5123 19.9131 11.9723 19.7539C12.4024 19.6051 12.8789 19.7655 13.1313 20.1442L13.3321 20.4453C13.3551 20.4798 13.3759 20.5157 13.3944 20.5528L14.6887 23.1414L16.2425 23.5299C16.6174 23.6236 16.9048 23.9249 16.9806 24.3039L17.3198 26H19.5V25.3205L14.7344 18.6486L14.7265 18.6408C14.4234 18.3376 14.3472 17.8749 14.5372 17.4906C14.8332 16.8916 15 16.2167 15 15.5C15 13.0147 12.9853 11 10.5 11C9.28054 11 8.17437 11.4851 7.36391 12.2728C7.95493 12.7288 8.69579 13 9.5 13C10.0523 13 10.5 13.4477 10.5 14C10.5 14.5523 10.0523 15 9.5 15C8.29422 15 7.17907 14.612 6.2726 13.954Z" fill="black"/>
</svg>

<svg xmlns="http://www.w3.org/2000/svg" width="32" height="32" fill="none" viewBox="0 0 32 32"><path fill="#000" fill-rule="evenodd" d="M9.5 6C7.567 6 6 7.567 6 9.5c0 .3975.0663.7796.1884 1.1357.903-.801 2.0307-1.3544 3.2766-1.5537a6.51 6.51 0 0 1 1.3396-2.0766 6.6 6.6 0 0 1 .524-.4905A3.484 3.484 0 0 0 9.5 6m2.1873 3.1082c.6689-1.0638 1.7708-1.8276 3.0576-2.045A4.5 4.5 0 0 1 15.5 7c2.4853 0 4.5 2.0147 4.5 4.5 0 .2686-.0234.531-.0681.7853a1 1 0 0 0 .5299 1.0636L27 18.486V20h-1.823l-.7485-1.8714A1 1 0 0 0 23.5 17.5h-2.0194l-1.6997-2.1247a1 1 0 0 0-.0738-.0824l-.143-.143a.997.997 0 0 0-.5876-.2857q.0234.3149.0235.6358a8.53 8.53 0 0 1-.2016 1.8487l1.4207 1.776c.1898.2372.4771.3753.7809.3753h1.823l.7485 1.8714c.1519.3796.5196.6286.9285.6286H28c.5523 0 1-.4477 1-1v-3a1 1 0 0 0-.3822-.7863l-6.6367-5.2146A6.6 6.6 0 0 0 22 11.5C22 7.9102 19.0898 5 15.5 5a6.49 6.49 0 0 0-2.3094.4222C12.2153 4.539 10.9209 4 9.5 4 6.4624 4 4 6.4624 4 9.5c0 1.0498.2941 2.0309.8044 2.8653C4.2917 13.2949 4 14.3634 4 15.5c0 3.5899 2.9101 6.5 6.5 6.5a6.52 6.52 0 0 0 1.3153-.1334l1.2903 2.5806a1 1 0 0 0 .6519.5229l1.386.3466.3759 1.8794A1 1 0 0 0 16.5 28h4c.5523 0 1-.4477 1-1v-2a1 1 0 0 0-.1863-.5812l-4.7309-6.6234A6.49 6.49 0 0 0 17 15.5c0-3.1844-2.2898-5.8339-5.3127-6.3918M6.2726 13.954A4.49 4.49 0 0 0 6 15.5c0 2.4853 2.0147 4.5 4.5 4.5a4.49 4.49 0 0 0 1.4723-.2461 1 1 0 0 1 1.159.3903l.2008.3011a1 1 0 0 1 .0623.1075l1.2943 2.5886 1.5538.3885a1 1 0 0 1 .7381.774L17.3198 26H19.5v-.6795l-4.7656-6.6719-.0079-.0078a1 1 0 0 1-.1893-1.1502c.296-.599.4628-1.2739.4628-1.9906 0-2.4853-2.0147-4.5-4.5-4.5-1.2195 0-2.3256.4851-3.136 1.2728A3.485 3.485 0 0 0 9.5 13c.5523 0 1 .4477 1 1s-.4477 1-1 1c-1.2058 0-2.321-.388-3.2274-1.046"/></svg>
